public/img/blog/page/5-sekretiv-yak-polehshyty-zhyttya-mulyaru/file-pdf-solid.svg

<svg version="1.1" xmlns="http://www.w3.org/2000/svg" xmlns:xlink="http://www.w3.org/1999/xlink" width="512px" height="512px" viewBox="0,0,256,256"><g fill="#332d2c" fill-rule="nonzero" stroke="none" stroke-width="1" stroke-linecap="butt" stroke-linejoin="miter" stroke-miterlimit="10" stroke-dasharray="" stroke-dashoffset="0" font-family="none" font-weight="none" font-size="none" text-anchor="none" style="mix-blend-mode: normal"><g transform="translate(4,0) scale(0.5,0.5)"><path d="M0,64c0,-35.3 28.7,-64 64,-64h160v128c0,17.7 14.3,32 32,32h128v144h-208c-35.3,0 -64,28.7 -64,64v144h-48c-35.3,0 -64,-28.7 -64,-64zM384,128h-128v-128zM176,352h32c30.9,0 56,25.1 56,56c0,30.9 -25.1,56 -56,56h-16v32c0,8.8 -7.2,16 -16,16c-8.8,0 -16,-7.2 -16,-16v-48v-80c0,-8.8 7.2,-16 16,-16zM208,432c13.3,0 24,-10.7 24,-24c0,-13.3 -10.7,-24 -24,-24h-16v48zM304,352h32c26.5,0 48,21.5 48,48v64c0,26.5 -21.5,48 -48,48h-32c-8.8,0 -16,-7.2 -16,-16v-128c0,-8.8 7.2,-16 16,-16zM336,480c8.8,0 16,-7.2 16,-16v-64c0,-8.8 -7.2,-16 -16,-16h-16v96zM416,368c0,-8.8 7.2,-16 16,-16h48c8.8,0 16,7.2 16,16c0,8.8 -7.2,16 -16,16h-32v32h32c8.8,0 16,7.2 16,16c0,8.8 -7.2,16 -16,16h-32v48c0,8.8 -7.2,16 -16,16c-8.8,0 -16,-7.2 -16,-16v-64z"></path></g></g></svg>

<svg xmlns="http://www.w3.org/2000/svg" viewBox="0 0 512 512"><!--! Font Awesome Pro 6.4.0 by @fontawesome - https://fontawesome.com License - https://fontawesome.com/license (Commercial License) Copyright 2023 Fonticons, Inc. --><path d="M0 64C0 28.7 28.7 0 64 0H224V128c0 17.7 14.3 32 32 32H384V304H176c-35.3 0-64 28.7-64 64V512H64c-35.3 0-64-28.7-64-64V64zm384 64H256V0L384 128zM176 352h32c30.9 0 56 25.1 56 56s-25.1 56-56 56H192v32c0 8.8-7.2 16-16 16s-16-7.2-16-16V448 368c0-8.8 7.2-16 16-16zm32 80c13.3 0 24-10.7 24-24s-10.7-24-24-24H192v48h16zm96-80h32c26.5 0 48 21.5 48 48v64c0 26.5-21.5 48-48 48H304c-8.8 0-16-7.2-16-16V368c0-8.8 7.2-16 16-16zm32 128c8.8 0 16-7.2 16-16V400c0-8.8-7.2-16-16-16H320v96h16zm80-112c0-8.8 7.2-16 16-16h48c8.8 0 16 7.2 16 16s-7.2 16-16 16H448v32h32c8.8 0 16 7.2 16 16s-7.2 16-16 16H448v48c0 8.8-7.2 16-16 16s-16-7.2-16-16V432 368z"/></svg>
